X: 39894
T: Thistle Schottische, The
R: barndance
M: 4/4
K: Gmajor
A|:(3Bc^c|dB (3BAG E2 _E2|D4- DA (3Bc^c|dB (3BAG AEFG|Afe^c d2 BF|
AGEG D2 (3EFG|AA,BB, c2 ^c2|(3ddd dB AGEF|1 G4- GA:|2 G2 G2 GD (3B,C^C||
|:D4- DB,CB,|E4- EA^GA|BA^GA dAGA|B4- BB (3BBF|
AGEG D2 (3EFG|AA,BB, c2 ^c2|(3ddd dB AGEF|1 G2 G2 GD (3B,C^C:|2 G2 G2 GA||
|:(3Bc^c|(3dgd (3BdB GBdB|(3cec (3AcA EcAG|(3FAc fe (3ded (3cBA|G2 (3BGE D2 (3Bc^c|
(3dgd (3BdB GBdB|(3cec (3AcA E2 AG|(3FAc fe (3ded (3cBA|1 G2 F2 G2:|2 G2 B2 c2 ^c2||
|:d2 (3BAG E2 _E2|D4- DA (3Bc^c|dB (3BAG AEFG|Afe^c d2 BF|
AGEG DG (3EFG|AA,BB, c2 ^c2|d2- dB AGEF|1 G2 G2 GA (3Bc^c:|2 G2 (3AGF GD||
|:(3B,C^C|D4- DB,CB,|E4- EA^GA|BA^GA dAGA|B4- BB (3BBF|
AGEG D2 (3EFG|AA,BB, c2 ^c2|(3ddd dB AGEF|1 G2 (3GGF GD:|2 G2 (3GGF GA||
|:Bc|(3dgd (3BdB (3GBd (3gdB|(3cec (3AcA (3EAc (3ecA|(3FAc (3fgf (3ded (3cBA|(3GFG (3BGE D2 (3Bc^c|
(3dgd (3BdB (3GBd (3gdB|(3cec (3AcA (3EAc (3ecA|(3FAc (3fgf (3ded (3cBA|(3GFG (3BAF G2:|

